modules/web-icons/icons/calendar.svg

<svg xmlns="http://www.w3.org/2000/svg" width="64" height="64" viewBox="0 0 64 64"><path d="M56 64H8a8 8 0 0 1-8-8V8a8 8 0 0 1 8-8h8v8h8V0h16v8h8V0h8a8 8 0 0 1 8 8v48a8 8 0 0 1-8 8zm0-48H8v40h48V16zM24 32h-8v-8h8v8zm0 16h-8v-8h8v8zm12-16h-8v-8h8v8zm0 16h-8v-8h8v8zm12-16h-8v-8h8v8zm0 16h-8v-8h8v8z" fill-rule="evenodd" clip-rule="evenodd"/></svg>

<svg xmlns="http://www.w3.org/2000/svg" width="64" height="64" viewBox="0 0 64 64"><style>.st0{fill-rule:evenodd;clip-rule:evenodd}</style><path class="st0" d="M56,64H8c-4.418,0-8-3.582-8-8V8c0-4.418,3.582-8,8-8h8v8h8V0h16v8h8V0h8c4.418,0,8,3.582,8,8v48 C64,60.418,60.419,64,56,64z M56,16H8v40H56V16z M24,32h-8v-8h8V32z M24,48h-8v-8h8V48z M36,32h-8v-8h8V32z M36,48h-8v-8h8V48z M48,32h-8v-8h8V32z M48,48h-8v-8h8V48z" id="calendar"/></svg>
